icons-rebrand/svg/secure-call-lock-regular.svg

<svg xmlns="http://www.w3.org/2000/svg" width="32" height="32" viewBox="0 0 32 32" fill="none"><path d="M26.7507 5.75H27.0007C27.4647 5.75056 27.9095 5.93512 28.2376 6.26318C28.5656 6.59125 28.7502 7.03604 28.7507 7.5V11.5C28.7502 11.964 28.5656 12.4088 28.2376 12.7368C27.9095 13.0649 27.4647 13.2494 27.0007 13.25H21.0007C20.5368 13.2494 20.092 13.0649 19.7639 12.7368C19.4359 12.4087 19.2513 11.964 19.2507 11.5V7.5C19.2513 7.03604 19.4359 6.59125 19.7639 6.26319C20.092 5.93512 20.5368 5.75056 21.0007 5.75H21.2507V4.5C21.2507 3.77065 21.5405 3.07118 22.0562 2.55546C22.5719 2.03973 23.2714 1.75 24.0007 1.75C24.7301 1.75 25.4296 2.03973 25.9453 2.55546C26.461 3.07118 26.7507 3.77065 26.7507 4.5V5.75ZM23.1168 3.61612C22.8824 3.85054 22.7507 4.16848 22.7507 4.5V5.75H25.2507V4.5C25.2507 4.16848 25.119 3.85054 24.8846 3.61612C24.6502 3.3817 24.3323 3.25 24.0007 3.25C23.6692 3.25 23.3513 3.3817 23.1168 3.61612ZM27.1774 11.6766C27.2242 11.6298 27.2506 11.5663 27.2507 11.5V7.5C27.2506 7.43373 27.2242 7.37022 27.1774 7.32336C27.1305 7.27651 27.067 7.25013 27.0007 7.25H21.0007C20.9345 7.25013 20.871 7.27651 20.8241 7.32337C20.7772 7.37022 20.7509 7.43374 20.7507 7.5V11.5C20.7509 11.5663 20.7772 11.6298 20.8241 11.6766C20.871 11.7235 20.9345 11.7499 21.0007 11.75H27.0007C27.067 11.7499 27.1305 11.7235 27.1774 11.6766Z M24.0382 19.6992C23.417 19.1047 22.5902 18.7732 21.7303 18.7739C20.8705 18.7746 20.0442 19.1075 19.424 19.7031C19.424 19.7031 18.1623 20.9853 17.6876 21.4629C15.8023 21.4265 14.0044 20.6614 12.671 19.3281C11.3377 17.9947 10.5726 16.1968 10.5363 14.3115C11.0138 13.8369 12.296 12.5771 12.3009 12.5722C12.9111 11.9602 13.2538 11.1313 13.2538 10.267C13.2538 9.40282 12.9111 8.57385 12.3009 7.96187L9.54699 5.208C8.93268 4.59544 8.10055 4.25146 7.23303 4.25146C6.3655 4.25146 5.53337 4.59544 4.91906 5.208L3.4474 6.67965C1.50307 8.625 1.07924 15.4658 8.80678 23.1923C13.7619 28.1484 18.3517 29.7509 21.5207 29.7509C22.8932 29.8479 24.2513 29.4191 25.3195 28.5517L26.7912 27.08C27.4041 26.4659 27.7484 25.6337 27.7484 24.766C27.7484 23.8984 27.4041 23.0661 26.7912 22.4521L24.0382 19.6992ZM25.7306 26.0195L24.2589 27.4912C22.9279 28.8183 16.9005 29.167 9.86733 22.1318C2.83412 15.0986 3.17983 9.0693 4.50799 7.74019L5.97963 6.26851C6.31256 5.93704 6.76324 5.75094 7.23305 5.75094C7.70286 5.75094 8.15354 5.93704 8.48647 6.26851L11.2404 9.02242C11.5692 9.35191 11.7542 9.79812 11.7551 10.2636C11.7561 10.7291 11.5728 11.176 11.2453 11.5068C11.2453 11.5068 9.74037 12.9853 9.37709 13.3496C8.72963 13.997 9.15932 15.8066 9.30678 16.3457C9.71882 17.8671 10.5116 19.2585 11.6105 20.3887C12.7407 21.4873 14.1321 22.2801 15.6535 22.6924C16.1935 22.8408 18.0021 23.2715 18.6506 22.6221C19.0138 22.2588 20.4885 20.7598 20.4885 20.7598C20.8237 20.4396 21.2695 20.261 21.7331 20.261C22.1967 20.261 22.6424 20.4396 22.9777 20.7598L25.7306 23.5127C26.0627 23.8453 26.2492 24.2961 26.2492 24.7661C26.2492 25.2361 26.0627 25.6869 25.7306 26.0195Z"/></svg>

<svg width="32" height="32" fill="none" xmlns="http://www.w3.org/2000/svg"><path fill-rule="evenodd" clip-rule="evenodd" d="M26.7507 5.75h.25a1.7523 1.7523 0 011.75 1.75v4a1.7518 1.7518 0 01-1.75 1.75h-6a1.7523 1.7523 0 01-1.75-1.75v-4a1.7525 1.7525 0 011.75-1.75h.25V4.5a2.7501 2.7501 0 015.5 0v1.25zm-3.6339-2.1339a1.25 1.25 0 00-.3661.8839v1.25h2.5V4.5a1.25 1.25 0 00-2.1339-.8839zm4.0606 8.0605a.2503.2503 0 00.0733-.1766v-4a.2505.2505 0 00-.25-.25h-6a.2506.2506 0 00-.25.25v4a.2504.2504 0 00.25.25h6a.2504.2504 0 00.1767-.0734z" fill="#0F0F0F"/><path d="M24.0382 19.6992a3.334 3.334 0 00-4.6142.0039s-1.2617 1.2822-1.7364 1.7598a7.2933 7.2933 0 01-7.1513-7.1514c.4775-.4746 1.7597-1.7344 1.7646-1.7393a3.2648 3.2648 0 000-4.6103L9.5469 5.208a3.2771 3.2771 0 00-4.6278 0L3.4474 6.6796C1.5031 8.625 1.0792 15.4658 8.8068 23.1923c4.9551 4.9561 9.5449 6.5586 12.7139 6.5586a5.4203 5.4203 0 003.7988-1.1992l1.4717-1.4717a3.2757 3.2757 0 000-4.6279l-2.753-2.7529zm1.6924 6.3203l-1.4717 1.4717c-1.331 1.3271-7.3584 1.6758-14.3916-5.3594C2.8341 15.0986 3.1798 9.0693 4.508 7.7402l1.4716-1.4717a1.7765 1.7765 0 012.5069 0l2.7539 2.754a1.7619 1.7619 0 01.0049 2.4843s-1.505 1.4785-1.8682 1.8428c-.6475.6474-.2178 2.457-.0703 2.9961a9.2793 9.2793 0 002.3037 4.043 9.2848 9.2848 0 004.043 2.3037c.54.1484 2.3486.5791 2.9971-.0703.3632-.3633 1.8379-1.8623 1.8379-1.8623a1.8018 1.8018 0 012.4892 0l2.7529 2.7529a1.7739 1.7739 0 010 2.5068z" fill="#0F0F0F"/></svg>
